X: 1
T: the Rector at the Feis
C: Ryan J. MacNeil
R: reel
Z: 2019 John Chambers <jc:trillian.mit.edu>
M: C|
L: 1/8
K: Amix
"A"[|]ef |\
"G"g2gf gedB | g2gf gedB | "A"eaag aged | cded cA A/A/A |
"G"g2gf gedB | g2gf gedB | "A"eaag aged | c2A2 A2 :|
"B"[|] AB |:\
"A"c2A2 A2eA | cdeA cdeA | "G"g2d2 d2fd | "D"adgd fdcd |
"A"c2A2 A2eA | cdeA cdeA | "G"g2gf gedB |1 "E"deBd "A"cAAA :|2 "E"deBd "A"cA |]
